X:249
T: Briarpicker Brown
C: R-137
Z: Transcribed to abc by Mary Lou Knack
R: reel
M: C|
K: D
AB|\
"D"d2B2 A2FA| BAFE D2A2| dcdf "A"edea| "D"fedA "A"B2AB|
"D"d2B2 A2FA| BAFE D2A2| dcdf "A"edea| "D"fd-d2 d2 :|
|: fg|\
"D"a4    a2fa| bafa "A"e2fg| "D"a2ab a2f2| "A"e2d2 B2A2|
"D"fa-a2 a2fa| bafa "A"e2de| "D"fedB "A"ABdf| "D"ed-d2 d2 :|
%%text 01/16/00.  From "The Portland Collection"
